_includes/icons/ios-guarantee.svg

<svg fill="#666" height="50" viewBox="0 0 50 50" width="50" xmlns="http://www.w3.org/2000/svg"><path d="m21.4375 1.0058594c-1.355797.0404912-2.665761.7466197-3.412109 1.9804687l-.263672.4375c-.376546.6216756-1.040034 1.0045706-1.765625 1.0195313h-.001953l-.511719.0117187c-2.195845.045732-3.984613 1.8332064-4.029297 4.0292969l-.011719.5117188c-.01496.725604-.399021 1.3904652-1.019531 1.7656252l-.4375.265625c-1.8789271 1.137377-2.5349798 3.580986-1.4765625 5.505859h.0019531l.2460938.449219c.3501483.635706.3501483 1.403356 0 2.039062l-.2460938.447266c-1.0582488 1.924567-.4035885 4.368565 1.4765625 5.505859l.4374999.263672c.621676.376546 1.004571 1.040034 1.019531 1.765625v.001953l.011719.511719c.036992 1.776241 1.221292 3.268852 2.832031 3.804688l-5.1953121 11.257812a1.0001 1.0001 0 0 0 .9082031 1.419922h6.519531l3.699219 4.625a1.0001 1.0001 0 0 0 1.697266-.224609l3.115234-7.119141 3.115234 7.119141a1.0001 1.0001 0 0 0 1.697266.224609l3.699219-4.625h6.519531a1.0001 1.0001 0 0 0 .908203-1.419922l-5.203125-11.27539c1.583636-.55097 2.742709-2.030304 2.779297-3.78711v-.001953l.011719-.509766v-.001953c.01496-.725604.399021-1.390465 1.019531-1.765625l.439453-.265625c1.878975-1.137378 2.533026-3.579033 1.47461-5.503906l-.001954-.001953-.25-.451172c-.348021-.63495-.347531-1.400739.001954-2.035156l.248046-.447266v-.001953c1.05779-1.923731.403661-4.365972-1.474609-5.503906l-.001953-.001953-.4375-.263672c-.621631-.376358-1.004571-1.0400341-1.019531-1.7656252v-.0019532l-.011719-.5097656v-.0019531c-.045731-2.1958516-1.833207-3.9846128-4.029297-4.0292969l-.511719-.0117188c-.725604-.0149609-1.390465-.3990217-1.765625-1.0195312l-.265625-.4375c-1.137294-1.880151-3.581292-2.53481132-5.505859-1.4765625v.0019531l-.449219.2460938c-.635706.3501483-1.403356.3501483-2.039062 0l-.447266-.2460938c-.481142-.2645622-.994218-.4223229-1.511719-.4804687-.194062-.0218047-.388346-.029222-.582031-.0234375zm-.050781 1.9941406c.395514-.0288607.805353.0548121 1.18164.2617188l.445313.2460937c1.234294.6798517 2.736409.6798517 3.970703 0l.447266-.2480469v.0019532c1.003433-.5517512 2.237372-.2220364 2.830078.7578124l.265625.4375c.728645 1.2042164 2.026425 1.9546978 3.433594 1.984375l.513671.0117188c1.14525.023302 2.048964.9250633 2.072266 2.0703125v.0019531l.009766.5117188c.02904 1.4084086.78005 2.7060926 1.984375 3.4355466l.4375.265625c.979249.592343 1.310099 1.825024.759765 2.828125l-.248047.449219c-.679851 1.234294-.679851 2.734456 0 3.96875l.001954.001953v.001953l.248046.44336c.551583 1.003126.21926 2.237456-.759765 2.830078l-.4375.265625c-1.205491.72884-1.955336 2.027151-1.984375 3.435547l-.009766.511718v.001953c-.0233 1.145251-.927016 2.047011-2.072266 2.070313l-.513671.011719c-1.407661.02969-2.704475.77865-3.433594 1.982422v.001953l-.265625.4375c-.592706.979849-1.826645 1.309563-2.830078.757812v.001953l-.447266-.248046c-1.234294-.679853-2.736409-.679853-3.970703 0l-.447266.248046v-.001953c-1.003126.551583-2.237456.221213-2.830078-.757812l-.265625-.4375c-.728645-1.204217-2.026424-1.954698-3.433594-1.984375h-.001953l-.511718-.011719c-1.14525-.0233-2.048964-.925062-2.072266-2.070313v-.001953l-.009766-.511718c-.02904-1.408409-.78005-2.706093-1.984375-3.435547l-.4375-.265625c-.979814-.592841-1.3115166-1.826645-.759765-2.830078l.246093-.445313v-.001953c.678911-1.233969.679539-2.735026 0-3.96875l-.248046-.447266h.001953c-.5515833-1.003126-.221213-2.237456.757812-2.830078l.4375-.265625c1.204217-.728645 1.954698-2.026425 1.984375-3.4335935v-.0019531l.011719-.5117188c.0233-1.1452492.925062-2.0489631 2.070313-2.0722656h.001953l.511718-.0097656c1.408409-.029039 2.706093-.7800506 3.435547-1.984375l.265625-.4375c.296353-.4899245.75165-.8190138 1.259766-.9550782.127029-.034016.256834-.056786.388672-.0664062zm10.896484 8.085938-8.240234 12.880859-6.623047-5.960938-1.339844 1.488282 8.376953 7.537109 9.509766-14.867188zm1.417969 20.517578 4.796875 10.396484h-5.435547a1.0001 1.0001 0 0 0 -.78125.375l-2.966797 3.707031-3.191406-7.298828 1.683594-3.847656c1.607197.251023 3.282867-.45669 4.167968-1.919922l.265625-.4375c.322358-.532212.859053-.873434 1.460938-.974609zm-17.34375.007812c.579079.113668 1.093148.452161 1.404297.966797l.265625.4375c1.137378 1.878975 3.580986 2.534979 5.505859 1.476563v-.001954l.449219-.246093c.610204-.336103 1.339026-.340387 1.958984-.03125l-5.193359 11.86914-2.966797-3.707031a1.0001 1.0001 0 0 0 -.78125-.375h-5.435547z"/></svg>

<svg xmlns="http://www.w3.org/2000/svg" viewBox="0 0 50 50" width="50" height="50" fill="#666"><path style="line-height:normal;text-indent:0;text-align:start;text-decoration-line:none;text-decoration-style:solid;text-decoration-color:#000;text-transform:none;block-progression:tb;isolation:auto;mix-blend-mode:normal" d="M 21.4375 1.0058594 C 20.081703 1.0463506 18.771739 1.7524791 18.025391 2.9863281 L 17.761719 3.4238281 C 17.385173 4.0455037 16.721685 4.4283987 15.996094 4.4433594 L 15.994141 4.4433594 L 15.482422 4.4550781 C 13.286577 4.5008101 11.497809 6.2882845 11.453125 8.484375 L 11.441406 8.9960938 C 11.426446 9.7216978 11.042385 10.386559 10.421875 10.761719 L 9.984375 11.027344 C 8.1054479 12.164721 7.4493952 14.60833 8.5078125 16.533203 L 8.5097656 16.533203 L 8.7558594 16.982422 C 9.1060077 17.618128 9.1060077 18.385778 8.7558594 19.021484 L 8.5097656 19.46875 C 7.4515168 21.393317 8.1061771 23.837315 9.9863281 24.974609 L 10.423828 25.238281 C 11.045504 25.614827 11.428399 26.278315 11.443359 27.003906 L 11.443359 27.005859 L 11.455078 27.517578 C 11.49207 29.293819 12.67637 30.78643 14.287109 31.322266 L 9.0917969 42.580078 A 1.0001 1.0001 0 0 0 10 44 L 16.519531 44 L 20.21875 48.625 A 1.0001 1.0001 0 0 0 21.916016 48.400391 L 25.03125 41.28125 L 28.146484 48.400391 A 1.0001 1.0001 0 0 0 29.84375 48.625 L 33.542969 44 L 40.0625 44 A 1.0001 1.0001 0 0 0 40.970703 42.580078 L 35.767578 31.304688 C 37.351214 30.753718 38.510287 29.274384 38.546875 27.517578 L 38.546875 27.515625 L 38.558594 27.005859 L 38.558594 27.003906 C 38.573554 26.278302 38.957615 25.613441 39.578125 25.238281 L 40.017578 24.972656 C 41.896553 23.835278 42.550604 21.393623 41.492188 19.46875 L 41.490234 19.466797 L 41.240234 19.015625 C 40.892213 18.380675 40.892703 17.614886 41.242188 16.980469 L 41.490234 16.533203 L 41.490234 16.53125 C 42.548024 14.607519 41.893895 12.165278 40.015625 11.027344 L 40.013672 11.025391 L 39.576172 10.761719 C 38.954541 10.385361 38.571601 9.7216849 38.556641 8.9960938 L 38.556641 8.9941406 L 38.544922 8.484375 L 38.544922 8.4824219 C 38.499191 6.2865703 36.711715 4.4978091 34.515625 4.453125 L 34.003906 4.4414062 C 33.278302 4.4264453 32.613441 4.0423845 32.238281 3.421875 L 31.972656 2.984375 C 30.835362 1.104224 28.391364 0.44956368 26.466797 1.5078125 L 26.466797 1.5097656 L 26.017578 1.7558594 C 25.381872 2.1060077 24.614222 2.1060077 23.978516 1.7558594 L 23.53125 1.5097656 C 23.050108 1.2452034 22.537032 1.0874427 22.019531 1.0292969 C 21.825469 1.0074922 21.631185 1.0000749 21.4375 1.0058594 z M 21.386719 3 C 21.782233 2.9711393 22.192072 3.0548121 22.568359 3.2617188 L 23.013672 3.5078125 C 24.247966 4.1876642 25.750081 4.1876642 26.984375 3.5078125 L 27.431641 3.2597656 L 27.431641 3.2617188 C 28.435074 2.7099676 29.669013 3.0396824 30.261719 4.0195312 L 30.527344 4.4570312 C 31.255989 5.6612476 32.553769 6.411729 33.960938 6.4414062 L 34.474609 6.453125 C 35.619859 6.476427 36.523573 7.3781883 36.546875 8.5234375 L 36.546875 8.5253906 L 36.556641 9.0371094 C 36.585681 10.445518 37.336691 11.743202 38.541016 12.472656 L 38.978516 12.738281 C 39.957765 13.330624 40.288615 14.563305 39.738281 15.566406 L 39.490234 16.015625 C 38.810383 17.249919 38.810383 18.750081 39.490234 19.984375 L 39.492188 19.986328 L 39.492188 19.988281 L 39.740234 20.431641 C 40.291817 21.434767 39.959494 22.669097 38.980469 23.261719 L 38.542969 23.527344 C 37.337478 24.256184 36.587633 25.554495 36.558594 26.962891 L 36.548828 27.474609 L 36.548828 27.476562 C 36.525528 28.621813 35.621812 29.523573 34.476562 29.546875 L 33.962891 29.558594 C 32.55523 29.588284 31.258416 30.337244 30.529297 31.541016 L 30.529297 31.542969 L 30.263672 31.980469 C 29.670966 32.960318 28.437027 33.290032 27.433594 32.738281 L 27.433594 32.740234 L 26.986328 32.492188 C 25.752034 31.812335 24.249919 31.812335 23.015625 32.492188 L 22.568359 32.740234 L 22.568359 32.738281 C 21.565233 33.289864 20.330903 32.959494 19.738281 31.980469 L 19.472656 31.542969 C 18.744011 30.338752 17.446232 29.588271 16.039062 29.558594 L 16.037109 29.558594 L 15.525391 29.546875 C 14.380141 29.523575 13.476427 28.621813 13.453125 27.476562 L 13.453125 27.474609 L 13.443359 26.962891 C 13.414319 25.554482 12.663309 24.256798 11.458984 23.527344 L 11.021484 23.261719 C 10.04167 22.668878 9.7099674 21.435074 10.261719 20.431641 L 10.507812 19.986328 L 10.507812 19.984375 C 11.186723 18.750406 11.187351 17.249349 10.507812 16.015625 L 10.259766 15.568359 L 10.261719 15.568359 C 9.7101357 14.565233 10.040506 13.330903 11.019531 12.738281 L 11.457031 12.472656 C 12.661248 11.744011 13.411729 10.446231 13.441406 9.0390625 L 13.441406 9.0371094 L 13.453125 8.5253906 C 13.476425 7.3801414 14.378187 6.4764275 15.523438 6.453125 L 15.525391 6.453125 L 16.037109 6.4433594 C 17.445518 6.4143204 18.743202 5.6633088 19.472656 4.4589844 L 19.738281 4.0214844 C 20.034634 3.5315599 20.489931 3.2024706 20.998047 3.0664062 C 21.125076 3.0323902 21.254881 3.0096202 21.386719 3 z M 32.283203 11.085938 L 24.042969 23.966797 L 17.419922 18.005859 L 16.080078 19.494141 L 24.457031 27.03125 L 33.966797 12.164062 L 32.283203 11.085938 z M 33.701172 31.603516 L 38.498047 42 L 33.0625 42 A 1.0001 1.0001 0 0 0 32.28125 42.375 L 29.314453 46.082031 L 26.123047 38.783203 L 27.806641 34.935547 C 29.413838 35.18657 31.089508 34.478857 31.974609 33.015625 L 32.240234 32.578125 C 32.562592 32.045913 33.099287 31.704691 33.701172 31.603516 z M 16.357422 31.611328 C 16.936501 31.724996 17.45057 32.063489 17.761719 32.578125 L 18.027344 33.015625 C 19.164722 34.8946 21.60833 35.550604 23.533203 34.492188 L 23.533203 34.490234 L 23.982422 34.244141 C 24.592626 33.908038 25.321448 33.903754 25.941406 34.212891 L 20.748047 46.082031 L 17.78125 42.375 A 1.0001 1.0001 0 0 0 17 42 L 11.564453 42 L 16.357422 31.611328 z"/></svg>
